X: 4316
M: 2/4
L: 1/8
K: F
|:\
c2A>B | cfc2 | zABd | c4 |\
c2{e}d>c | cfdB | A2G2 | F2z2 H:|\
c2_B2 | Ad2c | =Be2d | c2"_D.C."[c2E2] |]


